X:1
T: Miss Stewart of Fasnacloich's Reel
C:
R:Reel
Q: 232
K:A
M:4/4
L:1/8
|:e|AA ec e2 ec|((3fga) ec fB Ba|AA ec e2 ce|1af ec eA Ae:|2af ec eA Ag|
|:a2 ae fe ce|a2 ae fB Bg|a2 ae fe ce|1((3fga) ec eA Ag:|2((3fga) ec eA Ae|
|:AA eA fA eA|aA ec fB Ba|AA eA fA Aa|1((3fga) ec eA Ae:|2((3fga) ec eA A((3e/f/g/) |
|:ae ce fe ce|ae ce fB Bg|ae ce fe ce|1((3fga) ec eA A((3e/f/g/) :|2((3fga) ec eA A||
